usr/share/icons/biglinux-icons-material/symbolic/devices/auth-smartcard-symbolic.svg

<svg width="16" height="16" version="1.1" xmlns="http://www.w3.org/2000/svg">
 <path d="m4 0c-1.108 0-2 0.892-2 2v12c0 1.108 0.892 2 2 2h8c1.108 0 2-0.892 2-2v-12c0-1.108-0.892-2-2-2h-8zm0 1h8c0.554 0 1 0.446 1 1v12c0 0.554-0.446 1-1 1h-8c-0.554 0-1-0.446-1-1v-12c0-0.554 0.446-1 1-1z" fill="#363636"/>
 <path d="m5.508 2.977c0.28203-0.00454 0.51199 0.22496 0.508 0.507v3.532h1v-4.032h3v4.032h0.511c0.677-0.01 0.677 1.01 0 1h-1.511v-4.032h-1v4.032h-3v-4.532c-0.003896-0.27577 0.21624-0.50261 0.492-0.507z" fill="#363636"/>
</svg>

<svg xmlns="http://www.w3.org/2000/svg" width="16" height="16"><path fill="#dedede" d="M4 0C2.892 0 2 .892 2 2v12c0 1.108.892 2 2 2h8c1.108 0 2-.892 2-2V2c0-1.108-.892-2-2-2H4zm0 1h8c.554 0 1 .446 1 1v12c0 .554-.446 1-1 1H4c-.554 0-1-.446-1-1V2c0-.554.446-1 1-1z"/><path fill="#dedede" d="M5.508 2.977a.5.5 0 0 1 .508.507v3.532h1V2.984h3v4.032h.511c.677-.01.677 1.01 0 1H9.016V3.984h-1v4.032h-3V3.484a.5.5 0 0 1 .492-.507z"/></svg>
